X:1
T:Title
%%score [ ( 1 2 ) ( 3 4 ) ] { ( 5 6 ) | ( 7 8 ) }
L:1/8
Q:1/4=120
M:4/4
K:C
V:1 treble nm="Midi_74"
V:2 treble 
V:3 bass nm="Midi_74"
V:4 bass 
V:5 treble nm="Org." snm="Org."
V:6 treble 
V:7 bass 
V:8 bass 
V:1
 A8 | (A2 c2) (B2 A2) |"^Major""^#""^#""^#" ^G8 || e8 | A4 (^G2 A2) | d4 c4 |{c} B8 || c8 | %8
 (c2 e2) (d2 c2) | B8 || c8 | A4 (^G2 A2) |"^William Henry Havergal\n(1793-1870)" A4 ^G4 | A8 |] %14
[K:A]"^As suggested by Havergal, a version in A major." A8 | (A2 c2) (B2 A2) | G8 || e8 | %18
 A4 (G2 A2) | d4 c4 |{c} B8 || c8 | (c2 e2) (d2 c2) | B8 || c8 | A4 (G2 A2) | A4 G4 | A8 |] %28
V:2
 E8 | F4 F4 | E8 || E8 | E4 E4 | E4 E4 | E8 || E8 | F4 A4 | (G6 F2) || E8 | E4 E4 | %12
 (D2 F2) (E2 D2) | C8 |][K:A] E8 | F4 F4 | E8 || E8 | E4 E4 | E4 E4 | E8 || E8 | F4 A4 | (G6 F2) || %24
 E8 | E4 E4 | (D2 F2) (E2 D2) | C8 |] %28
V:3
 C8 | (C2 A,2) B,4 | B,8 || A,8 | (A,2 C2) (B,2 A,2) | (A,2 ^G,2) A,4 |{A,} ^G,8 || A,8 | A,4 D4 | %9
 D8 || C8 | (C2 E2) (D2 C2) | B,4 B,4 | A,8 |][K:A] C8 | (C2 A,2) B,4 | B,8 || A,8 | %18
 (A,2 C2) (B,2 A,2) | (A,2 G,2) A,4 |{A,} G,8 || A,8 | A,4 D4 | D8 || C8 | (C2 E2) (D2 C2) | %26
 B,4 B,4 | A,8 |] %28
V:4
 A,8 | F,4 D,4 | E,8 || C,8 | (C,2 E,2) (D,2 C,2) | B,,4 A,,4 | E,8 || A,8 | F,4 F,4 | G,8 || A,8 | %11
 (A,2 C2) (B,2 A,2) | D,4 E,4 | A,,8 |][K:A] A,8 | F,4 D,4 | E,8 || C,8 | (C,2 E,2) (D,2 C,2) | %19
 B,,4 A,,4 | E,8 || A,8 | F,4 F,4 | G,8 || A,8 | (A,2 C2) (B,2 A,2) | D,4 E,4 | A,,8 |] %28
V:5
 A8 | A2 c2 B2 A2 | ^G8 || e8 | A4 ^G2 A2 | [Ed]4 c4 |{c} B8 || c8 | c2 e2 d2 c2 | [DB]8 || [Cc]8 | %11
 A4 ^G2 A2 | A4 ^G4 | A8 |][K:A] A8 | A2 c2 B2 A2 | G8 || e8 | A4 G2 A2 | [Ed]4 c4 |{c} B8 || c8 | %22
 c2 e2 d2 c2 | [DB]8 || c8 | A4 G2 A2 | A4 G4 | A8 |] %28
V:6
 [CE]8 | F4 F4 | E8 || [EA]8 | E4 E4 | A2 ^G2 [EA]4 |{A} [E^G]8 || [EA]8 | [FA]4 [DA]4 | G6 F2 || %10
 E8 | C2 E2 D2 C2 | B,2 F2 E2 D2 | C8 |][K:A] [CE]8 | F4 F4 | E8 || [EA]8 | E4 E4 | A2 G2 [EA]4 | %20
{A} [EG]8 || [EA]8 | [FA]4 [DA]4 | G6 F2 || [CEc]8 | C2 E2 D2 C2 | B,2 F2 E2 D2 | C8 |] %28
V:7
 x8 | C2 A,2 B,4 | B,8 || x8 | x8 | x8 | x8 || x8 | x8 | x8 || x8 | x8 | x8 | x8 |][K:A] x8 | %15
 C2 A,2 B,4 | B,8 || x8 | x8 | x8 | x8 || x8 | x8 | x8 || x8 | x8 | x8 | x8 |] %28
V:8
 A,8 | F,4 D,4 | E,8 || C,8 | C,2 E,2 D,2 C,2 | B,,4 A,,4 | E,8 || A,8 | F,4 F,4 | G,8 || A,8 | %11
 A,2 C2 B,2 A,2 | D,4 E,4 | A,,8 |][K:A] A,8 | F,4 D,4 | E,8 || C,8 | C,2 E,2 D,2 C,2 | B,,4 A,,4 | %20
 E,8 || A,8 | F,4 F,4 | G,8 || A,8 | A,2 C2 B,2 A,2 | D,4 E,4 | A,,8 |] %28

